X: 44
T:Lord of Carnarvans Jegg
M:C|
L:1/8
Q:210
K:GMix
B2G2 Bcd2|c2A2 ABcd|B2G2 d2ef|1 g4 d4:|2 g4 d2ef||
gfed g3B|A2A2 c2dc|B2G2 b3a|g4 d4||

